images/left.svg

<svg xmlns="http://www.w3.org/2000/svg" viewBox="0 0 58.41 46.84"><g data-name="图层 2"><g data-name="Layer 1"><path fill="#fff" d="M58.41 46.84H0V0h58.41z"/><path d="M0 46.84h58.41V0H0v46.84zm55-.25l3.19-3.19v3.19zm-.35 0h-3.86l7.36-7.36V43zm-4.18 0h-3.85L58.16 35v3.82zm-4.18 0h-3.85l15.72-15.72v3.82zm-4.18 0h-3.85l19.9-19.9v3.82zm-4.18 0h-3.85l24.08-24.08v3.82zm-4.18 0H29.9l28.26-28.26v3.82l-.24.24zm-4.18 0h-3.85l32.44-32.44V18zm-4.18 0h-3.85L58.16 10v3.8zm-4.18 0h-3.84L58.16 5.8v3.82zm-4.18 0h-3.84l45-45v3.85zM58.16.25v1L12.83 46.59H9L55.35.25zM55 .25L8.65 46.59H4.83L51.17.25zm-4.18 0L4.48 46.59H.65L47 .25zM.67.25L.25.67V.25zm.33 0h3.85l-4.6 4.6V1zm4.18 0H9L.25 9V5.21zm4.18 0h3.82l-13 13V9.38zm4.18 0h3.82L.25 17.39v-3.83zm4.18 0h3.82L.25 21.56v-3.82zm4.18 0h3.82L.25 25.74v-3.82zm4.18 0h3.82L.25 29.92V26.1zm4.18 0h3.84L.25 34.1v-3.82zm4.18 0h3.82l-38 38v-3.8zm4.18 0h3.82L.25 42.46v-3.83zm4.18 0h3.82l-.23.25L.3 46.59v-3.78z" fill="#6b6b6b"/><path fill="#231916" d="M10.33 23.43l11.23 11.24 3.53-3.54-5.88-5.88h28.87v-3H18.56l6.54-6.54-3.53-3.54L10.34 23.4l.01.02-.02.01z"/></g></g></svg>

<svg xmlns="http://www.w3.org/2000/svg" viewBox="0 0 58.41 46.84"><defs><style>.cls-1{fill:#fff;}.cls-2{fill:#6b6b6b;}.cls-3{fill:#231916;}</style></defs><title>left</title><g id="图层_2" data-name="图层 2"><g id="Layer_1" data-name="Layer 1"><rect class="cls-1" width="58.41" height="46.84" transform="translate(58.41 46.84) rotate(180)"/><path class="cls-2" d="M0,46.84H58.41V0H0V46.84ZM55,46.59l3.19-3.19v3.19Zm-.35,0H50.79l7.36-7.36V43Zm-4.18,0H46.62L58.16,35v3.82Zm-4.18,0H42.44L58.16,30.87v3.82Zm-4.18,0H38.26l19.9-19.9v3.82Zm-4.18,0H34.08L58.16,22.51v3.82Zm-4.18,0H29.9L58.16,18.33v3.82l-.24.24Zm-4.18,0H25.72L58.16,14.15V18Zm-4.18,0H21.54L58.16,10V13.8Zm-4.18,0H17.37L58.16,5.8V9.62Zm-4.18,0H13.19l45-45V5.44ZM58.16.25v1L12.83,46.59H9L55.35.25ZM55,.25,8.65,46.59H4.83L51.17.25Zm-4.18,0L4.48,46.59H.65L47,.25ZM.67.25.25.67V.25ZM1,.25H4.85L.25,4.85V1Zm4.18,0H9L.25,9V5.21Zm4.18,0h3.82l-13,13V9.38Zm4.18,0h3.82L.25,17.39V13.56Zm4.18,0h3.82L.25,21.56V17.74Zm4.18,0h3.82L.25,25.74V21.92Zm4.18,0h3.82L.25,29.92V26.1Zm4.18,0H34.1L.25,34.1V30.28Zm4.18,0h3.82l-38,38V34.45Zm4.18,0h3.82L.25,42.46V38.63Zm4.18,0h3.82L46.39.5.3,46.59h0V42.81Z"/><polygon class="cls-3" points="10.33 23.43 21.56 34.67 25.09 31.13 19.21 25.25 48.08 25.25 48.08 22.25 18.56 22.25 25.1 15.71 21.57 12.17 10.34 23.4 10.35 23.42 10.33 23.43"/></g></g></svg>
